GeneralPlan/dist/assets/img/customer-developer-3.svg

<svg width="120" height="25" viewBox="0 0 120 25" fill="none" xmlns="http://www.w3.org/2000/svg">
<path d="M71.5973 6.11127C71.1806 6.87516 70.3473 7.36127 69.4445 7.36127C67.9861 7.36127 66.8056 6.25016 66.8056 4.79183C66.8056 3.3335 67.9167 2.22239 69.4445 2.22239C70.3473 2.22239 71.1806 2.7085 71.5278 3.40294L71.5973 3.54183L72.2917 3.12516L72.2223 2.98627C71.6667 2.01405 70.625 1.4585 69.4445 1.4585C67.5 1.4585 66.1111 2.91683 66.1111 4.79183C66.1111 6.66683 67.5695 8.12516 69.4445 8.12516C70.625 8.12516 71.6667 7.50016 72.2223 6.52794L72.2917 6.38905L71.5973 6.11127Z" fill="white"/>
<path d="M74.8612 7.91683H75.6251V2.22239H77.5695V1.4585H72.9167V2.22239H74.8612V7.91683Z" fill="white"/>
<path d="M79.4445 5.62516H80.9029C82.0834 5.62516 82.9862 4.72239 82.9862 3.54183C82.9862 2.36127 82.0834 1.4585 80.9029 1.4585H78.6806V7.91683H79.4445V5.62516ZM79.4445 2.22239H80.9029C81.6667 2.22239 82.2223 2.77794 82.2223 3.54183C82.2223 4.30572 81.6667 4.86127 80.9029 4.86127H79.4445V2.22239Z" fill="white"/>
<path d="M90.5556 4.72225C90.5556 2.84725 89.0973 1.38892 87.2223 1.38892C85.3473 1.38892 83.889 2.84725 83.889 4.72225C83.889 6.59725 85.3473 8.05558 87.2223 8.05558C89.0973 8.05558 90.5556 6.59725 90.5556 4.72225ZM87.2223 7.29169C85.764 7.29169 84.6529 6.18058 84.6529 4.72225C84.6529 3.26392 85.764 2.1528 87.2223 2.1528C88.6806 2.1528 89.7918 3.26392 89.7918 4.72225C89.8612 6.18058 88.6806 7.29169 87.2223 7.29169Z" fill="white"/>
<path d="M96.7362 7.91683V1.4585H96.1112L92.7084 6.4585V1.4585H91.9445V7.91683H92.5695L95.9723 2.91683V7.91683H96.7362Z" fill="white"/>
<path d="M103.542 7.91683H104.306V1.4585H103.472L101.389 5.00016L99.2362 1.4585H98.4028V7.91683H99.1667V2.84739L101.25 6.25016H101.528L103.542 2.84739V7.91683Z" fill="white"/>
<path d="M71.1112 11.3196H67.0139V15.0001C67.0139 15.9724 66.8056 16.5974 66.4584 17.0835H65.9028V19.0279H66.6667V17.8474H71.0417V19.0279H71.8056V17.0835H71.1806L71.1112 11.3196ZM70.3473 12.014V17.014H67.3612C67.6389 16.5279 67.7778 15.8335 67.7778 14.9307V12.014H70.3473Z" fill="white"/>
<path d="M73.8195 15.0001C73.8195 16.8751 73.1945 17.0835 72.7084 17.0835C72.639 17.0835 72.5695 17.0835 72.5695 17.0835H72.4306V17.7779H72.5695C72.639 17.7779 72.7084 17.7779 72.7779 17.7779C73.9584 17.7779 74.514 16.8751 74.514 15.0001V12.014H77.2223V17.7779H77.9862V11.3196H73.8195V15.0001Z" fill="white"/>
<path d="M79.3751 13.2639C79.3751 14.1667 80.0001 14.9306 80.8334 15.1389L79.0279 17.7083H79.9306L81.6667 15.1389H83.1251V17.7083H83.889V11.25H81.3195C80.2779 11.3194 79.3751 12.1528 79.3751 13.2639ZM81.3195 12.0139H83.1251V14.5139H81.3195C80.6251 14.5139 80.139 13.9583 80.139 13.2639C80.139 12.5694 80.6945 12.0139 81.3195 12.0139Z" fill="white"/>
<path d="M95.2084 11.3196H94.3056L91.8751 13.9585V11.3196H91.1112V13.9585L88.6806 11.3196H87.7084L90.5556 14.4446L87.6389 17.7779H88.6112L91.1112 14.9307V17.7779H91.8751V14.9307L94.3751 17.7779H95.3473L92.3612 14.4446L95.2084 11.3196Z" fill="white"/>
<path d="M105.903 14.3751C106.389 14.0279 106.667 13.5418 106.667 12.9862C106.667 11.9446 105.833 11.1807 104.653 11.1807C103.333 11.1807 102.778 11.8751 102.57 12.5001L102.5 12.639L103.125 12.9862L103.195 12.8473C103.403 12.2223 103.958 11.9446 104.653 11.9446C105.417 11.9446 105.903 12.3612 105.903 13.0557C105.903 13.6807 105.417 14.1668 104.583 14.1668H103.958V14.8612H104.792C105.556 14.8612 106.111 15.2779 106.111 16.0418C106.111 16.7362 105.556 17.2223 104.653 17.2223C103.611 17.2223 103.195 16.6668 103.056 16.1807L102.986 15.9723L102.292 16.3196L102.361 16.4584C102.57 17.014 103.056 17.9168 104.653 17.9168C105.972 17.9168 106.875 17.1529 106.875 16.0418C106.806 15.2779 106.458 14.7223 105.903 14.3751Z" fill="white"/>
<path d="M112.292 14.0974H109.028V11.3196H108.264V17.7779H109.028V14.7918H112.292V17.7779H113.056V11.3196H112.292V14.0974Z" fill="white"/>
<path d="M100.903 17.639V11.1807H100.278L96.8751 16.1807V11.1807H96.1112V17.639H96.7362L100.139 12.639V17.639H100.903Z" fill="white"/>
<path d="M119.653 17.639V11.1807H119.028L115.625 16.1807V11.1807H114.861V17.639H115.486L118.889 12.639V17.639H119.653Z" fill="white"/>
<path d="M38.1945 14.5874V1.3916H24.3097V5.28049C24.3097 6.11382 24.3097 8.47494 23.8931 10.3499C23.6847 11.1833 22.9903 13.4055 22.157 14.586H20.625L18.475 18.7499H40.2778V14.5881L38.1945 14.5874ZM27.9861 10.6972C28.4028 8.96105 28.4722 7.22493 28.4722 5.54507H34.0278V14.586H26.8056C27.3611 13.1972 27.7083 12.086 27.9861 10.6972Z" fill="white"/>
<path d="M12.5 1.38892V14.5834H4.15972V1.38892H0V18.75H16.6646V1.38892H12.5Z" fill="white"/>
<path d="M50.5555 15.1388C47.8472 15.1388 45.625 12.9166 45.625 10.2082C45.625 7.49989 47.8472 5.27767 50.5555 5.27767C52.0139 5.27767 53.2639 5.90267 54.1667 6.87489L56.0417 3.26378C54.5139 2.08322 52.6389 1.31934 50.5555 1.31934C45.6944 1.31934 41.6667 5.27767 41.6667 10.2082C41.6667 15.1388 45.625 19.0971 50.5555 19.0971C53.4722 19.0971 56.1111 17.6388 57.7083 15.4166L54.5139 13.1249C53.6805 14.3054 52.2222 15.1388 50.5555 15.1388Z" fill="white"/>
<path d="M14.1271 25.0002H6.80554L12.2917 14.5835H19.6132L14.1271 25.0002Z" fill="#9D9D9D"/>
<path d="M59.668 10.4167H52.3458L57.8319 0H65.1542L59.668 10.4167Z" fill="#D9D9D9"/>
</svg>

<svg width="120" height="25" fill="none" xmlns="http://www.w3.org/2000/svg"><path d="M71.597 6.111c-.416.764-1.25 1.25-2.152 1.25-1.459 0-2.64-1.11-2.64-2.57 0-1.458 1.112-2.569 2.64-2.569.902 0 1.736.486 2.083 1.18l.07.14.694-.417-.07-.139c-.555-.972-1.597-1.528-2.777-1.528-1.945 0-3.334 1.459-3.334 3.334s1.459 3.333 3.334 3.333a3.18 3.18 0 002.777-1.597l.07-.139-.695-.278zm3.264 1.806h.764V2.222h1.945v-.764h-4.653v.764h1.944v5.695zm4.584-2.292h1.458c1.18 0 2.083-.903 2.083-2.083 0-1.18-.903-2.083-2.083-2.083H78.68v6.458h.764V5.625zm0-3.403h1.458c.764 0 1.32.556 1.32 1.32s-.556 1.32-1.32 1.32h-1.459v-2.64zm11.111 2.5c0-1.875-1.459-3.333-3.334-3.333S83.89 2.847 83.89 4.722c0 1.875 1.458 3.334 3.333 3.334 1.875 0 3.334-1.459 3.334-3.334zm-3.334 2.57c-1.458 0-2.57-1.111-2.57-2.57 0-1.458 1.112-2.57 2.57-2.57 1.459 0 2.57 1.112 2.57 2.57.07 1.459-1.111 2.57-2.57 2.57zm9.514.625V1.459h-.625l-3.403 5v-5h-.763v6.458h.625l3.402-5v5h.764zm6.806 0h.764V1.459h-.834L101.389 5l-2.153-3.542h-.833v6.459h.764v-5.07l2.083 3.403h.278l2.014-3.403v5.07zM71.111 11.32h-4.097V15c0 .972-.208 1.597-.556 2.084h-.555v1.944h.764v-1.18h4.375v1.18h.764v-1.944h-.625l-.07-5.764zm-.764.694v5h-2.986c.278-.486.417-1.18.417-2.083v-2.917h2.57zM73.82 15c0 1.875-.625 2.084-1.112 2.084h-.278v.694h.348c1.18 0 1.736-.903 1.736-2.778v-2.986h2.708v5.764h.764V11.32H73.82V15zm5.555-1.736c0 .903.625 1.667 1.458 1.875l-1.805 2.57h.903l1.736-2.57h1.458v2.57h.764V11.25h-2.57c-1.041.07-1.944.903-1.944 2.014zm1.945-1.25h1.805v2.5H81.32c-.695 0-1.181-.556-1.181-1.25 0-.695.556-1.25 1.18-1.25zm13.888-.694h-.902l-2.43 2.639v-2.64h-.765v2.64l-2.43-2.64h-.973l2.848 3.126-2.917 3.333h.972l2.5-2.847v2.847h.764V14.93l2.5 2.847h.972l-2.986-3.333 2.847-3.125zm10.695 3.055c.486-.347.764-.833.764-1.389 0-1.041-.834-1.805-2.014-1.805-1.32 0-1.875.694-2.083 1.32l-.07.138.625.347.07-.139c.208-.625.763-.902 1.458-.902.764 0 1.25.416 1.25 1.11 0 .626-.486 1.112-1.32 1.112h-.625v.694h.834c.764 0 1.319.417 1.319 1.18 0 .695-.555 1.181-1.458 1.181-1.042 0-1.458-.555-1.597-1.041l-.07-.209-.694.348.069.138c.209.556.695 1.459 2.292 1.459 1.319 0 2.222-.764 2.222-1.875-.069-.764-.417-1.32-.972-1.667zm6.389-.278h-3.264V11.32h-.764v6.458h.764v-2.986h3.264v2.986h.764V11.32h-.764v2.777zm-11.389 3.542v-6.458h-.625l-3.403 5v-5h-.764v6.458h.625l3.403-5v5h.764zm18.75 0v-6.458h-.625l-3.403 5v-5h-.764v6.458h.625l3.403-5v5h.764zm-81.459-3.052V1.392H24.31V5.28c0 .834 0 3.195-.417 5.07-.208.833-.903 3.056-1.736 4.236h-1.532l-2.15 4.164h21.803v-4.162h-2.084zm-10.208-3.89c.417-1.736.486-3.472.486-5.152h5.556v9.041h-7.222c.555-1.389.902-2.5 1.18-3.889zM12.5 1.389v13.194H4.16V1.39H0v17.36h16.665V1.389H12.5zm38.056 13.75c-2.709 0-4.931-2.222-4.931-4.93 0-2.71 2.222-4.931 4.93-4.931 1.459 0 2.709.625 3.612 1.597l1.875-3.611c-1.528-1.18-3.403-1.945-5.486-1.945-4.862 0-8.89 3.959-8.89 8.89a8.862 8.862 0 008.89 8.888c2.916 0 5.555-1.458 7.152-3.68l-3.194-2.292c-.834 1.18-2.292 2.014-3.959 2.014z" fill="#fff"/><path d="M14.127 25H6.806l5.486-10.416h7.321L14.127 25z" fill="#9D9D9D"/><path d="M59.668 10.417h-7.322L57.832 0h7.322l-5.486 10.417z" fill="#D9D9D9"/></svg>
